X: 36376
T: Sean Nugent's
R: reel
M: 4/4
K: Amajor
|:a3f ecAE|A2cA BAFA|EFAB BAce|afec cBBc|
A2af ecAE|ABcA BAFA|EFAB c2ec|1 BABc A2 fg:|2 BAGB A3E||
|:ABce f2fg|afec dcBA|df~f2 gf~f2|bfaf B2cf|
feaf ecAE|ABcA BAFA|EFAB c2ec|1 BAGB A3E:|2 BAGB A2 (3efg||

